X: 35035
T: Rollicking Skipper, The
R: jig
M: 6/8
K: Gmajor
|:efg edc|BGG G2A|BdB AGA|BAG A2d|
efg edc|BGG G2A|BdB AGA|BGG G3:|
|:egg egg|egg ged|eaa eaa|eaa aed|
egg egg|egg ged|efg edc|BGG G3:|

